X:137
T: FROHE STUNDEN GIBTS IM LEBEN
N: F0259
O: Europa, Mitteleuropa, Deutschland
R: Jugend - Lied, Belehrung, Moral, religioes
M: 3/4
L: 1/16
K: G
B3A | G6A2B2c2 | B4A4
c3B | A6A2B3^c | d4z4
d3c | B6=f2e2d2 | d4c4
c2c2 | e6d2c2B2 | A8z4
G3FG2A2B2c2 | d4g4e4
d3ed2c2B2A2 | G4z4

